X: 34
T:Scottish Branle (2)
M:4/4
L:1/4
R:Branle
B:Thoinot Arbeau : Orchesographie, 1589
Z:Steve Mansfield March 2001
K:GDor
d2 de | fg fe | d2 d2 | cB A2 |
d2 cB | A2 G2 |
d2 de | fg fe | d2 d2 |
cB AG | AF G2 ||
<end>
<start>
